icons-common/SKUD.svg

<svg height="1em" width="auto" viewBox="0 0 105 105" fill="currentColor" xmlns="http://www.w3.org/2000/svg">
    <path d="M20.211 61.0722C18.4557 61.0722 17 59.6018 17 57.8288V47.2767C17 27.7727 32.7125 11.9014 51.9786 11.9014C57.4159 11.9014 62.682 13.1555 67.5199 15.6205C69.104 16.399 69.7462 18.345 68.9755 19.9884C68.2049 21.5885 66.2783 22.2372 64.6514 21.4588C60.6697 19.4694 56.4312 18.4315 51.9786 18.4315C36.2232 18.3883 23.422 31.3189 23.422 47.2335V57.7855C23.422 59.5586 21.9664 61.029 20.211 61.029V61.0722Z"
          />
    <path d="M83.7891 61.0725C82.0337 61.0725 80.5781 59.6022 80.5781 57.8291V47.277C80.5781 41.6118 78.9512 36.1195 75.8258 31.3625C74.8411 29.8488 75.2692 27.8595 76.7249 26.8649C78.2233 25.8702 80.1928 26.3027 81.1775 27.773C84.9879 33.568 87.0001 40.3144 87.0001 47.277V57.8291C87.0001 59.6022 85.5444 61.0725 83.7891 61.0725Z"
          />
    <path d="M73.0002 61.0724C71.2449 61.0724 69.7892 59.602 69.7892 57.8289V47.2768C69.7892 37.3735 61.8259 29.3297 52.0216 29.3297C42.2174 29.3297 34.2541 37.3735 34.2541 47.2768V57.8289C34.2541 59.602 32.7984 61.0724 31.043 61.0724C29.2877 61.0724 27.832 59.602 27.832 57.8289V47.2768C27.832 33.784 38.7067 22.8428 52.0216 22.8428C65.3366 22.8428 76.2112 33.8273 76.2112 47.2768V57.8289C76.2112 59.602 74.7556 61.0724 73.0002 61.0724Z"
          />
    <path d="M52.1072 70.8024C51.1225 70.8024 50.1806 70.6727 49.2815 70.4564C46.9267 70.1105 44.5292 68.8131 42.5598 66.8238C40.7188 64.9642 39.3916 62.4991 38.8778 59.9044C38.7922 59.3422 38.7066 58.8232 38.6638 58.261C38.5781 57.8286 38.5781 57.4393 38.5781 57.2231V46.9305C38.7922 44.1628 39.5628 41.914 40.8472 39.9679C42.1745 37.8056 44.3579 35.9893 46.8411 34.9514C49.2387 33.9567 51.8931 33.6972 54.5904 34.2162C57.1164 34.6919 59.4711 35.946 61.3977 37.8056C63.3671 39.8814 64.6515 42.3465 65.1225 44.8547C65.2081 45.4169 65.2937 45.8926 65.3365 46.3683C65.4222 46.844 65.4222 47.2333 65.4222 47.4495V57.7421C65.2937 60.3368 64.5231 62.7154 63.153 64.7479C61.5261 67.0832 59.4283 68.8131 57.1592 69.7645C55.4894 70.4132 53.7341 70.7159 52.1072 70.7159V70.8024ZM45.0001 57.0934C45.043 57.3096 45.0858 57.5691 45.0858 57.7853C45.0858 58.1313 45.1286 58.434 45.2142 58.7367C45.4711 59.9909 46.1561 61.2883 47.1408 62.2397C47.8258 62.9316 48.9818 63.8398 50.5659 64.0993C52.0216 64.4452 53.4772 64.3155 54.8472 63.7965C56.2601 63.1911 57.3304 61.9802 57.9726 61.1153C58.6148 60.1639 59.043 58.9097 59.0858 57.6556V47.6657C59.043 47.4495 59.0001 47.19 59.0001 46.9305C59.0001 46.6278 58.9573 46.3683 58.8717 46.0656C58.6148 44.8115 57.9298 43.4709 56.9023 42.3897C56.3029 41.8275 55.0613 40.9193 53.3916 40.5734C51.9359 40.2706 50.5659 40.4004 49.3243 40.9193C47.9971 41.4815 46.9268 42.3897 46.1989 43.5141C45.4711 44.5953 45.0858 45.7629 44.9573 47.1468V57.0501L45.0001 57.0934Z"
          />
    <path d="M51.9786 92.901C32.7125 92.901 17 77.0297 17 57.569V47.0169C17 45.2438 18.4557 43.7734 20.211 43.7734C21.9664 43.7734 23.422 45.2438 23.422 47.0169V57.569C23.422 73.4835 36.2232 86.4141 51.9786 86.4141C67.7339 86.4141 80.5352 73.4835 80.5352 57.569V47.0169C80.5352 45.2438 81.9908 43.7734 83.7462 43.7734C85.5015 43.7734 86.9572 45.2438 86.9572 47.0169V57.569C86.9572 77.073 71.2446 92.901 51.9786 92.901Z"
          />
    <path d="M51.9787 82.0037C49.9665 82.0037 47.997 81.7442 46.0276 81.2685C44.3151 80.8361 43.2876 79.063 43.7157 77.3331C44.1438 75.6033 45.942 74.5654 47.6117 74.9978C49.0246 75.3438 50.4802 75.56 51.9787 75.56C61.783 75.56 69.7463 67.5163 69.7463 57.6129V47.0608C69.7463 45.2878 71.2019 43.8174 72.9573 43.8174C74.7126 43.8174 76.1683 45.2878 76.1683 47.0608V57.6129C76.1683 71.1057 65.2937 82.047 51.9787 82.047V82.0037Z"
          />
    <path d="M33.6115 71.0188C32.4984 71.0188 31.3852 70.4133 30.7858 69.3322C28.8164 65.7427 27.7461 61.6344 27.7461 57.526V46.9739C27.7461 45.2008 29.2018 43.7305 30.9571 43.7305C32.7125 43.7305 34.1681 45.2008 34.1681 46.9739V57.526C34.1681 60.5532 34.9388 63.5372 36.3944 66.1752C37.2507 67.7321 36.6941 69.7214 35.1528 70.5863C34.6391 70.8458 34.1253 70.9755 33.6115 70.9755V71.0188Z"
          />
    <path d="M62.2112 50.7366C60.4986 50.7366 59.0858 49.396 59.0002 47.6661C58.8289 46.8445 58.9573 45.9795 59.3855 45.2444C59.9849 44.2929 61.0124 43.6875 62.1255 43.6875C63.8809 43.6875 65.4222 45.1579 65.4222 46.931V47.4932C65.4222 49.2662 63.9665 50.7366 62.2112 50.7366Z"
          />
</svg>

<svg xmlns="http://www.w3.org/2000/svg" width="auto" height="1em" fill="currentColor" viewBox="0 0 105 105">
    <path d="M20.211 61.072c-1.755 0-3.211-1.47-3.211-3.243V47.277C17 27.773 32.712 11.9 51.979 11.9a34 34 0 0 1 15.54 3.72c1.585.778 2.227 2.724 1.456 4.367-.77 1.6-2.697 2.25-4.324 1.47-3.981-1.989-8.22-3.026-12.672-3.026-15.756-.044-28.557 12.887-28.557 28.802v10.551c0 1.774-1.456 3.244-3.211 3.244zm63.579.001c-1.756 0-3.212-1.47-3.212-3.244V47.277a28.86 28.86 0 0 0-4.752-15.914 3.28 3.28 0 0 1 .899-4.498c1.498-.995 3.468-.562 4.453.908A35.4 35.4 0 0 1 87 47.277v10.552c0 1.773-1.456 3.243-3.21 3.243"/>
    <path d="M73 61.072c-1.755 0-3.21-1.47-3.21-3.243V47.277c0-9.904-7.964-17.947-17.768-17.947s-17.768 8.044-17.768 17.947v10.552c0 1.773-1.456 3.243-3.211 3.243s-3.211-1.47-3.211-3.243V47.277c0-13.493 10.875-24.434 24.19-24.434s24.19 10.984 24.19 24.434v10.552c0 1.773-1.456 3.243-3.212 3.243"/>
    <path d="M52.107 70.802c-.984 0-1.926-.13-2.825-.346-2.355-.346-4.753-1.643-6.722-3.632a13.8 13.8 0 0 1-3.682-6.92c-.086-.562-.171-1.08-.214-1.643-.086-.432-.086-.822-.086-1.038V46.931c.214-2.768.985-5.017 2.27-6.963 1.327-2.162 3.51-3.979 5.993-5.017 2.398-.994 5.052-1.254 7.75-.735 2.525.476 4.88 1.73 6.807 3.59 1.97 2.075 3.253 4.54 3.724 7.049.086.562.172 1.038.215 1.513.085.476.085.865.085 1.081v10.293c-.128 2.595-.899 4.973-2.269 7.006-1.627 2.335-3.725 4.065-5.994 5.016-1.67.65-3.425.952-5.052.952zM45 57.093c.043.217.086.476.086.692 0 .346.043.649.128.952a6.94 6.94 0 0 0 1.927 3.503c.685.692 1.84 1.6 3.425 1.86 1.456.345 2.911.216 4.281-.303 1.413-.606 2.483-1.817 3.126-2.682a6.76 6.76 0 0 0 1.113-3.46v-9.99a4 4 0 0 1-.086-.734c0-.303-.043-.563-.128-.865-.257-1.255-.942-2.595-1.97-3.676a7.55 7.55 0 0 0-3.51-1.817c-1.456-.302-2.826-.173-4.068.346a6.9 6.9 0 0 0-3.125 2.595c-.728 1.081-1.113 2.249-1.242 3.633v9.903z"/>
    <path d="M51.979 92.901C32.713 92.901 17 77.03 17 57.569V47.017c0-1.773 1.456-3.244 3.211-3.244s3.211 1.47 3.211 3.244v10.552c0 15.915 12.801 28.845 28.557 28.845s28.556-12.93 28.556-28.845V47.017c0-1.773 1.456-3.244 3.211-3.244s3.211 1.47 3.211 3.244v10.552c0 19.504-15.712 35.332-34.978 35.332"/>
    <path d="M51.979 82.004c-2.012 0-3.982-.26-5.951-.736-1.713-.432-2.74-2.205-2.312-3.935s2.226-2.768 3.896-2.335c1.413.346 2.868.562 4.367.562 9.804 0 17.767-8.044 17.767-17.947V47.06c0-1.773 1.456-3.244 3.211-3.244 1.756 0 3.211 1.47 3.211 3.244v10.552c0 13.493-10.874 24.434-24.19 24.434zM33.612 71.019a3.25 3.25 0 0 1-2.826-1.687 24.7 24.7 0 0 1-3.04-11.806V46.974c0-1.773 1.456-3.243 3.211-3.243s3.211 1.47 3.211 3.243v10.552c0 3.027.77 6.011 2.226 8.65.857 1.556.3 3.545-1.241 4.41q-.771.39-1.541.39zm28.599-20.282a3.216 3.216 0 0 1-3.21-3.07 3.42 3.42 0 0 1 .385-2.423c.599-.951 1.626-1.556 2.74-1.556 1.755 0 3.296 1.47 3.296 3.243v.562c0 1.773-1.455 3.244-3.21 3.244"/>
</svg>
